X: 2071
T: Asturian Air
R: hornpipe
M: 4/4
K: Aminor
E|:"Am7add9"A3B {B}c2 {Bc}BG|"Em9"E3G "Dm7"F2{GF}ED|{D}"C"E2 E4 {F}E{F}E|
"Am7add9"A3 {ABc}dcBG|"C"E3G "Dm7"F2 {GF}ED|"Em7sus4 E7 "{D}E2 E3 ((3Bcd)|
"Fmaj7"{d}e6 dc|"G"B3 "Am"{cB}A A4|"Dm7"{ABc}d2 dc {de}dcBA|"E7"^GABc B2 {cB}AE|
"Dm7"{ABc}d2 dc {de}dcBA|"E7"^GABc B2 {cB}AE|"Dm7"{Bcd}dc dcBA|1 "E7"^G6 EE:|2 "E7"^G8||

